dist/svgs/crypto-icons/icons/dent.svg

<?xml version="1.0" encoding="UTF-8" standalone="yes"?>
<svg xmlns="http://www.w3.org/2000/svg" xmlns:xlink="http://www.w3.org/1999/xlink" width="456px" height="510.66666666666663px" viewBox="0 0 342 383" version="1.1">
  <g id="surface1">
    <path style=" stroke:none;fill-rule:nonzero;fill:rgb(0%,0%,0%);fill-opacity:1;" d="M 171 0 C 192.082031 0 209.167969 17.078125 209.167969 38.148438 L 209.167969 344.851562 C 209.167969 365.921875 192.082031 383 171 383 C 149.917969 383 132.832031 365.921875 132.832031 344.851562 L 132.832031 38.148438 C 132.832031 17.078125 149.917969 0 171 0 Z M 171 12.207031 C 156.664062 12.207031 145.042969 23.820312 145.042969 38.148438 L 145.042969 344.851562 C 145.042969 359.179688 156.664062 370.792969 171 370.792969 C 185.335938 370.792969 196.957031 359.179688 196.957031 344.851562 L 196.957031 38.148438 C 196.957031 23.820312 185.335938 12.207031 171 12.207031 Z M 171 12.207031 "/>
    <path style=" stroke:none;fill-rule:nonzero;fill:rgb(0%,0%,0%);fill-opacity:1;" d="M 336.941406 287.25 C 326.402344 305.496094 303.054688 311.746094 284.800781 301.210938 L 19.03125 147.859375 C 0.773438 137.328125 -5.480469 113.996094 5.058594 95.75 C 15.597656 77.503906 38.945312 71.253906 57.199219 81.789062 L 322.96875 235.140625 C 341.226562 245.675781 347.480469 269.003906 336.941406 287.25 Z M 326.363281 281.144531 C 333.53125 268.738281 329.277344 252.875 316.863281 245.710938 L 51.09375 92.359375 C 38.679688 85.195312 22.804688 89.445312 15.636719 101.855469 C 8.46875 114.261719 12.722656 130.125 25.136719 137.289062 L 290.90625 290.640625 C 303.320312 297.804688 319.195312 293.554688 326.363281 281.144531 Z M 326.363281 281.144531 "/>
    <path style=" stroke:none;fill-rule:nonzero;fill:rgb(0%,0%,0%);fill-opacity:1;" d="M 336.941406 95.75 C 347.480469 113.996094 341.226562 137.324219 322.96875 147.859375 L 57.199219 301.210938 C 38.945312 311.746094 15.597656 305.496094 5.058594 287.25 C -5.480469 269.003906 0.773438 245.675781 19.03125 235.140625 L 284.800781 81.789062 C 303.054688 71.253906 326.402344 77.503906 336.941406 95.75 Z M 326.363281 101.855469 C 319.195312 89.445312 303.320312 85.195312 290.90625 92.359375 L 25.136719 245.710938 C 12.722656 252.875 8.46875 268.738281 15.636719 281.144531 C 22.804688 293.554688 38.679688 297.804688 51.09375 290.640625 L 316.863281 137.289062 C 329.277344 130.125 333.53125 114.261719 326.363281 101.855469 Z M 326.363281 101.855469 "/>
  </g>
</svg>

<svg xmlns="http://www.w3.org/2000/svg" viewBox="0 0 342 383"><path d="M171 0c21.082 0 38.168 17.078 38.168 38.148v306.704c0 21.07-17.086 38.148-38.168 38.148s-38.168-17.078-38.168-38.148V38.148C132.832 17.078 149.918 0 171 0zm0 12.207c-14.336 0-25.957 11.613-25.957 25.941v306.704c0 14.328 11.621 25.941 25.957 25.941s25.957-11.613 25.957-25.941V38.148c0-14.328-11.621-25.941-25.957-25.941zm0 0"/><path d="M336.941 287.25c-10.539 18.246-33.886 24.496-52.14 13.96L19.03 147.86C.773 137.327-5.48 113.995 5.06 95.75 15.599 77.504 38.946 71.254 57.2 81.79l265.77 153.35c18.258 10.536 24.511 33.864 13.972 52.11zm-10.578-6.105c7.168-12.407 2.914-28.27-9.5-35.434L51.093 92.359c-12.413-7.164-28.288-2.914-35.456 9.496-7.168 12.407-2.914 28.27 9.5 35.434l265.77 153.352c12.413 7.164 28.288 2.914 35.456-9.496zm0 0"/><path d="M336.941 95.75c10.54 18.246 4.286 41.574-13.972 52.11L57.199 301.21c-18.254 10.536-41.601 4.286-52.14-13.96-10.54-18.246-4.286-41.574 13.972-52.11l265.77-153.35c18.254-10.536 41.601-4.286 52.14 13.96zm-10.578 6.105c-7.168-12.41-23.043-16.66-35.457-9.496L25.136 245.711c-12.413 7.164-16.667 23.027-9.5 35.434 7.169 12.41 23.044 16.66 35.458 9.496l265.77-153.352c12.413-7.164 16.667-23.027 9.5-35.434zm0 0"/></svg>
